build/images/logo.svg

<?xml version="1.0" encoding="UTF-8"?>
<svg width="168px" height="21px" viewBox="0 0 168 21" version="1.1" xmlns="http://www.w3.org/2000/svg" xmlns:xlink="http://www.w3.org/1999/xlink">
    <!-- Generator: sketchtool 52.6 (67491) - http://www.bohemiancoding.com/sketch -->
    <title>A95EA278-079B-4359-8332-73C8F293C49B</title>
    <desc>Created with sketchtool.</desc>
    <g id="Symbols" stroke="none" stroke-width="1" fill="none" fill-rule="evenodd">
        <g id="graphic/logo/M/light/color">
            <g id="Group-2">
                <g id="Group">
                    <path d="M77.3209856,17.2 C73.7195447,17.2 70.8,14.2003078 70.8,10.5 C70.8,6.79969218 73.7195447,3.8 77.3209856,3.8 C80.9224264,3.8 82.5,6.79969218 82.5,10.5 C82.5,14.2003078 80.9224264,17.2 77.3209856,17.2 Z M77.25,14.5 C79.3210678,14.5 81,12.709139 81,10.5 C81,8.290861 79.3210678,6.5 77.25,6.5 C75.1789322,6.5 73.5,8.290861 73.5,10.5 C73.5,12.709139 75.1789322,14.5 77.25,14.5 Z" id="Combined-Shape" fill="#000000"></path>
                    <path d="M87.6790144,17.2 C84.0775736,17.2 82.5,14.2003078 82.5,10.5 C82.5,6.79969218 84.0775736,3.8 87.6790144,3.8 C91.2804553,3.8 94.2,6.79969218 94.2,10.5 C94.2,14.2003078 91.2804553,17.2 87.6790144,17.2 Z M87.6607143,14.5 C89.7810932,14.5 91.5,12.709139 91.5,10.5 C91.5,8.290861 89.7810932,6.5 87.6607143,6.5 C85.5403353,6.5 84,8.290861 84,10.5 C84,12.709139 85.5403353,14.5 87.6607143,14.5 Z" id="Combined-Shape" fill="#000000"></path>
                    <rect id="Rectangle" fill="#000000" x="81" y="-3.63797881e-12" width="3" height="21"></rect>
                    <path d="M159.679014,17.2 C156.077574,17.2 154.5,14.2003078 154.5,10.5 C154.5,6.79969218 156.077574,3.8 159.679014,3.8 C163.280455,3.8 166.2,6.79969218 166.2,10.5 C166.2,14.2003078 163.280455,17.2 159.679014,17.2 Z M159.660714,14.5 C161.781093,14.5 163.5,12.709139 163.5,10.5 C163.5,8.290861 161.781093,6.5 159.660714,6.5 C157.540335,6.5 156,8.290861 156,10.5 C156,12.709139 157.540335,14.5 159.660714,14.5 Z" id="Combined-Shape" fill="#000000"></path>
                    <rect id="Rectangle" fill="#000000" x="153" y="4" width="3" height="17"></rect>
                    <path d="M102.320986,17.2 C98.7195447,17.2 95.8,14.2003078 95.8,10.5 C95.8,6.79969218 98.7195447,3.8 102.320986,3.8 C105.586449,3.8 107.5,6.79969218 107.5,10.5 C107.5,14.2003078 105.586449,17.2 102.320986,17.2 Z M102.5,14.5 C104.571068,14.5 106.25,12.709139 106.25,10.5 C106.25,8.290861 104.571068,6.5 102.5,6.5 C100.428932,6.5 98.75,8.290861 98.75,10.5 C98.75,12.709139 100.428932,14.5 102.5,14.5 Z" id="Combined-Shape" fill="#000000"></path>
                    <polygon id="Rectangle" fill="#000000" points="106.25 4 109 4 109 17 106.25 17"></polygon>
                    <polygon id="Rectangle" fill="#000000" points="130 4 133 4 133 17 130 17"></polygon>
                    <polygon id="Rectangle" fill="#000000" points="112 4 115 4 115 17 112 17"></polygon>
                    <polygon id="Rectangle" fill="#000000" points="126 4 137 4 137 6.75 126 6.75"></polygon>
                    <polygon id="Rectangle" fill="#000000" points="41 4 44 4 44 17 41 17"></polygon>
                    <polygon id="Rectangle" fill="#000000" points="50 4 53 4 53 17 50 17"></polygon>
                    <path d="M32.5,17.25 C28.7720779,17.25 25.75,14.2279221 25.75,10.5 C25.75,6.77207794 28.7720779,3.75 32.5,3.75 C36.2279221,3.75 39.25,6.77207794 39.25,10.5 C39.25,14.2279221 36.2279221,17.25 32.5,17.25 Z M32.5,14.5 C34.5710678,14.5 36.25,12.709139 36.25,10.5 C36.25,8.290861 34.5710678,6.5 32.5,6.5 C30.4289322,6.5 28.75,8.290861 28.75,10.5 C28.75,12.709139 30.4289322,14.5 32.5,14.5 Z" id="Combined-Shape" fill="#000000"></path>
                    <path d="M144.5,17.25 C140.772078,17.25 137.75,14.2279221 137.75,10.5 C137.75,6.77207794 140.772078,3.75 144.5,3.75 C148.227922,3.75 151.25,6.77207794 151.25,10.5 C151.25,14.2279221 148.227922,17.25 144.5,17.25 Z M144.5,14.5 C146.571068,14.5 148.25,12.709139 148.25,10.5 C148.25,8.290861 146.571068,6.5 144.5,6.5 C142.428932,6.5 140.75,8.290861 140.75,10.5 C140.75,12.709139 142.428932,14.5 144.5,14.5 Z" id="Combined-Shape" fill="#000000"></path>
                    <polygon id="Rectangle" fill="#000000" points="41 4 53 4 53 6.75 41 6.75"></polygon>
                    <path d="M10.5999138,7.90008619 C9.91213253,7.04310551 8.89052677,6.5 7.75,6.5 C5.67893219,6.5 4,8.290861 4,10.5 C4,12.709139 5.67893219,14.5 7.75,14.5 C8.89052677,14.5 9.91213253,13.9568945 10.5999138,13.0999138 L12.5164596,15.0164596 C11.2809718,16.3878382 9.49117022,17.25 7.5,17.25 C3.77207794,17.25 0.75,14.2279221 0.75,10.5 C0.75,6.77207794 3.77207794,3.75 7.5,3.75 C9.49117022,3.75 11.2809718,4.61216183 12.5164596,5.98354043 L10.5999138,7.90008619 Z" id="Combined-Shape" fill="#000000"></path>
                    <polygon id="Rectangle" fill="#000000" points="121 4 124.75 4 117.75 11 114 11"></polygon>
                    <polygon id="Rectangle" fill="#000000" points="114 10 117.837209 10 125 17 121.162791 17"></polygon>
                    <polygon id="Rectangle" fill="#000000" points="18 4 21 4 21 17 18 17"></polygon>
                    <polygon id="Rectangle" fill="#000000" points="14 4 25 4 25 6.75 14 6.75"></polygon>
                    <rect id="Rectangle" fill="#000000" x="114" y="9.1" width="3" height="2.8"></rect>
                    <path d="M60,13 L65,8" id="Line-7" stroke="#F23D4C" stroke-width="2.8" stroke-linecap="square"></path>
                    <path d="M60,8 L65,13" id="Line-7" stroke="#F23D4C" stroke-width="2.8" stroke-linecap="square"></path>
                </g>
            </g>
        </g>
    </g>
</svg>

<svg width="168" height="21" xmlns="http://www.w3.org/2000/svg"><g fill="none" fill-rule="evenodd"><path d="M77.321 17.2c-3.601 0-6.521-3-6.521-6.7s2.92-6.7 6.521-6.7 5.179 3 5.179 6.7-1.578 6.7-5.179 6.7zm-.071-2.7c2.071 0 3.75-1.79 3.75-4s-1.679-4-3.75-4c-2.071 0-3.75 1.79-3.75 4s1.679 4 3.75 4zm10.429 2.7c-3.601 0-5.179-3-5.179-6.7s1.578-6.7 5.179-6.7 6.521 3 6.521 6.7-2.92 6.7-6.521 6.7zm-.018-2.7c2.12 0 3.839-1.79 3.839-4s-1.719-4-3.84-4c-2.12 0-3.66 1.79-3.66 4s1.54 4 3.66 4z" fill="#000"/><path fill="#000" d="M81 0h3v21h-3zm78.679 17.2c-3.601 0-5.179-3-5.179-6.7s1.578-6.7 5.179-6.7 6.521 3 6.521 6.7-2.92 6.7-6.521 6.7zm-.018-2.7c2.12 0 3.839-1.79 3.839-4s-1.719-4-3.84-4c-2.12 0-3.66 1.79-3.66 4s1.54 4 3.66 4z"/><path fill="#000" d="M153 4h3v17h-3zm-50.679 13.2c-3.601 0-6.521-3-6.521-6.7s2.92-6.7 6.521-6.7c3.265 0 5.179 3 5.179 6.7s-1.914 6.7-5.179 6.7zm.179-2.7c2.071 0 3.75-1.79 3.75-4s-1.679-4-3.75-4c-2.071 0-3.75 1.79-3.75 4s1.679 4 3.75 4z"/><path fill="#000" d="M106.25 4H109v13h-2.75zM130 4h3v13h-3zm-18 0h3v13h-3z"/><path fill="#000" d="M126 4h11v2.75h-11zM41 4h3v13h-3zm9 0h3v13h-3zM32.5 17.25a6.75 6.75 0 1 1 0-13.5 6.75 6.75 0 0 1 0 13.5zm0-2.75c2.071 0 3.75-1.79 3.75-4s-1.679-4-3.75-4c-2.071 0-3.75 1.79-3.75 4s1.679 4 3.75 4zm112 2.75a6.75 6.75 0 1 1 0-13.5 6.75 6.75 0 0 1 0 13.5zm0-2.75c2.071 0 3.75-1.79 3.75-4s-1.679-4-3.75-4c-2.071 0-3.75 1.79-3.75 4s1.679 4 3.75 4z"/><path fill="#000" d="M41 4h12v2.75H41zM10.6 7.9c-.688-.857-1.71-1.4-2.85-1.4C5.679 6.5 4 8.29 4 10.5s1.679 4 3.75 4c1.14 0 2.162-.543 2.85-1.4l1.916 1.916a6.75 6.75 0 1 1 0-9.033L10.6 7.9zM121 4h3.75l-7 7H114z"/><path fill="#000" d="M114 10h3.837L125 17h-3.837zM18 4h3v13h-3z"/><path fill="#000" d="M14 4h11v2.75H14zm100 5.1h3v2.8h-3z"/><path d="M60 13l5-5m-5 0l5 5" stroke="#F23D4C" stroke-width="2.8" stroke-linecap="square"/></g></svg>
